X:378
T: Abschied im Korbe (105), S. 256f
N: T0267
O: Luxemburg
S: Singendes Volk, Esch-Alzette 1937 posth.]
N: Rosport, Maria Schiltz
R: Liebeslieder]
M: 6/8
L: 1/8
K: A
E | A2AcBA | A2CE2
E | E2AGAB | A3z2
E | A2AcBA | A2CE2
E | E2AGAB | A3z2
A | A2AA2E | c2AA2
A | A2AA2E | c2AA2
A | d2dcBA | B3z2
E | A2Bc2e | d2EB2
A | G2FEGB | A3z2

@@@ Tune index: 8432
